mobile/apps/auth/assets/custom-icons/icons/forusall.svg

<?xml version="1.0" encoding="utf-8"?>
<svg viewBox="0 0 104 38" fill="none" xmlns="http://www.w3.org/2000/svg">
  <path fill-rule="evenodd" clip-rule="evenodd" d="M57.5095 26.6914C58.5499 27.057 59.8455 27.24 61.3968 27.24C62.9465 27.24 64.2375 26.7702 65.2686 25.8311C66.2982 24.8925 66.8137 23.6413 66.8137 22.0793C66.8137 21.1107 66.6084 20.2957 66.1983 19.6322C65.7883 18.9702 65.2881 18.4861 64.698 18.1795C64.1078 17.8735 63.5171 17.6157 62.9275 17.4087C62.3363 17.2003 61.8367 16.974 61.4266 16.7259C61.016 16.4788 60.8112 16.1585 60.8112 15.7624C60.8112 15.0501 61.3515 14.6947 62.432 14.6947C62.9723 14.6947 63.5279 14.7989 64.098 15.0058C64.6681 15.2138 64.963 15.3175 64.9835 15.3175C65.2434 15.3175 65.5238 15.0165 65.8238 14.413C66.1237 13.8095 66.274 13.3803 66.274 13.1225C66.274 12.3517 65.5531 11.8077 64.1124 11.4914C63.3926 11.3333 62.6321 11.2545 61.8321 11.2545C60.1305 11.2545 58.785 11.6847 57.7951 12.5444C56.8046 13.4047 56.3091 14.5762 56.3091 16.0593C56.3091 17.0477 56.5149 17.8577 56.925 18.4907C57.3351 19.1237 57.8352 19.5788 58.4254 19.8554C59.015 20.1325 59.6062 20.3694 60.1959 20.5667C60.786 20.765 61.2861 21.0075 61.6962 21.2938C62.1063 21.5805 62.3116 21.9609 62.3116 22.4357C62.3116 23.325 61.7014 23.7699 60.4814 23.7699C59.9206 23.7699 59.3006 23.6316 58.6204 23.3545C57.9396 23.0774 57.58 22.9391 57.5399 22.9391C57.2394 22.9391 56.8998 23.2259 56.5195 23.7994C56.1388 24.3729 55.9489 24.8178 55.9489 25.1336C55.9489 25.8067 56.4696 26.3253 57.5095 26.6914ZM41.5699 26.0681C42.2902 26.8496 43.4011 27.24 44.902 27.24C45.822 27.24 46.6771 27.0219 47.4674 26.5877C48.2583 26.1525 48.8932 25.6191 49.3732 24.9856C49.3928 25.0456 49.4278 25.2134 49.4787 25.4905C49.5286 25.7676 49.5734 25.9598 49.6135 26.0681C49.6531 26.1769 49.7139 26.3253 49.7936 26.513C49.8734 26.7011 49.9788 26.8343 50.109 26.9131C50.2387 26.9929 50.5037 27.0326 50.9045 27.0326C51.3038 27.0326 51.9094 26.9538 52.7192 26.7952C53.5301 26.6365 53.9351 26.3996 53.9351 26.0833L53.7555 24.8676C53.6356 24.0363 53.5754 23.0093 53.5754 21.7829V12.3812C53.5754 11.7487 52.9755 11.4325 51.774 11.4325H50.9343C49.7339 11.4325 49.1335 11.7487 49.1335 12.3812V21.9014C48.533 23.0484 47.7324 23.6219 46.7322 23.6219C45.5318 23.6219 44.9318 23.0093 44.9318 21.7829V12.3812C44.9318 11.7487 44.3314 11.4325 43.131 11.4325H42.2902C41.0898 11.4325 40.4894 11.7487 40.4894 12.3812V22.4357C40.4894 24.0765 40.8501 25.2871 41.5699 26.0681ZM71.5896 19.0002C71.5896 29.0394 63.3535 37.1776 53.1952 37.1776C43.0358 37.1776 34.8007 29.0394 34.8007 19.0002C34.8007 8.96193 43.0358 0.823242 53.1952 0.823242C63.3535 0.823242 71.5896 8.96193 71.5896 19.0002ZM3.3784 27.3154H3.25851C2.05349 27.3154 1.80085 26.8227 1.80085 26.4088V13.8812H0.857721C0.537169 13.8812 0 13.7323 0 12.7372V12.3803C0 11.3853 0.537169 11.2368 0.857721 11.2368H1.80085V8.67323C1.80085 6.88655 2.30664 5.67594 3.30431 5.07547C4.12138 4.57922 5.00483 4.32703 5.92944 4.32703C6.53504 4.32703 8.37808 4.32703 8.37808 5.47104C8.37808 5.69679 8.3148 5.99982 8.18513 6.39437C8.12648 6.57385 7.94742 7.1184 7.49 7.1184C7.44627 7.1184 7.37372 7.11281 7.01767 7.0401C6.79436 6.99383 6.47381 6.97044 6.06476 6.97044C5.70407 6.97044 5.41594 7.08535 5.18388 7.3233C5.02489 7.48499 4.83606 7.89225 4.83606 8.91067V11.2368H7.19003C7.51059 11.2368 8.04775 11.3853 8.04775 12.3803V12.7372C8.04775 13.7323 7.51059 13.8812 7.19003 13.8812H4.83606V26.4088C4.83606 26.8227 4.58343 27.3154 3.3784 27.3154ZM12.8931 15.0061C13.5276 14.1296 14.5103 13.7035 15.8954 13.7035C17.281 13.7035 18.2731 14.1352 18.9291 15.0224C19.5933 15.9229 19.9298 17.3496 19.9298 19.2623C19.9298 21.1746 19.5933 22.5957 18.9296 23.486C18.2741 24.3646 17.2816 24.7917 15.8954 24.7917C14.5098 24.7917 13.5276 24.3656 12.8931 23.489C12.2479 22.5987 11.9207 21.1715 11.9207 19.2471C11.9207 17.3231 12.2479 15.8959 12.8931 15.0061ZM10.6148 25.3316C11.8507 26.7273 13.6526 27.4351 15.9705 27.4351C18.289 27.4351 20.0719 26.7314 21.2686 25.3438C22.4546 23.968 23.0556 21.9362 23.0556 19.3071C23.0556 16.6774 22.4449 14.6268 21.2398 13.2113C20.023 11.7836 18.2448 11.0596 15.9551 11.0596C13.6665 11.0596 11.8749 11.7882 10.6282 13.2245C9.39176 14.6497 8.76558 16.6962 8.76558 19.3071C8.76558 21.919 9.38765 23.9466 10.6148 25.3316ZM27.2702 27.3161H27.1503C25.9448 27.3161 25.6927 26.8234 25.6927 26.4095V16.0001C25.6927 14.8165 25.6428 13.9648 25.5465 13.4681C25.332 12.378 25.332 12.3058 25.332 12.2626C25.332 12.0134 25.4627 11.6794 26.0878 11.4999C26.9425 11.2563 27.3664 11.2996 27.5949 11.4129C27.7107 11.4704 27.8156 11.5589 27.9072 11.6763C27.9901 11.7811 28.0559 11.8888 28.1048 11.9961C28.1496 12.0948 28.1943 12.2254 28.2386 12.3897C28.2772 12.5315 28.3101 12.6454 28.3394 12.7308C28.3574 12.7863 28.3765 12.8559 28.396 12.9393C29.4132 11.6911 30.537 11.0596 31.742 11.0596C32.3553 11.0596 32.841 11.1857 33.1847 11.4353C33.5526 11.7022 33.7394 12.051 33.7394 12.4705C33.7394 12.833 33.6746 13.2133 33.547 13.6018C33.4883 13.7808 33.3093 14.3268 32.8822 14.3268C32.8004 14.3268 32.6558 14.3055 32.2113 14.1484C31.9293 14.0502 31.5835 13.9999 31.1858 13.9999C30.8102 13.9999 30.4099 14.1397 29.9947 14.4163C29.5619 14.7046 29.2398 14.9883 29.0376 15.2609L28.7279 15.6437V26.4095C28.7279 26.8234 28.4747 27.3161 27.2702 27.3161ZM78.9514 20.0348C79.5987 19.7861 81.0682 19.656 83.3234 19.6468V22.6975C82.6483 23.2817 81.9809 23.7403 81.3378 24.0632C80.6833 24.3911 79.8878 24.5579 78.9756 24.5579C77.45 24.5579 76.74 23.8832 76.74 22.4351C76.74 21.5255 77.0873 20.9072 77.8045 20.5447C78.2028 20.3388 78.5866 20.1675 78.9514 20.0348ZM75.0595 26.0232C76.0206 26.7915 77.2987 27.1815 78.8583 27.1815C80.7121 27.1815 82.3133 26.5429 83.6264 25.2814C83.6506 25.4187 83.6763 25.5244 83.7026 25.6022C83.7304 25.6841 83.7623 25.7995 83.7993 25.9454C83.8436 26.1193 83.8873 26.252 83.9315 26.3476C83.9768 26.4503 84.0401 26.5581 84.1168 26.6659C84.2089 26.7976 84.3149 26.8937 84.4332 26.9527C84.6591 27.062 85.0825 27.1037 85.9104 26.8678C86.5248 26.6913 86.6534 26.3613 86.6534 26.1158C86.6534 26.0751 86.6534 26.037 86.443 24.9397C86.3488 24.4354 86.3009 23.6035 86.3009 22.4641V15.9723C86.3009 14.4683 85.7555 13.2755 84.6786 12.4259C83.6197 11.5915 82.2434 11.168 80.5891 11.168C78.9627 11.168 77.5462 11.383 76.3788 11.8066C75.0935 12.2743 74.4946 12.7411 74.4946 13.277C74.4946 13.5251 74.6242 13.8439 74.9005 14.2812C75.202 14.7581 75.4804 14.9803 75.7788 14.9803C75.8529 14.9803 75.9028 14.9803 76.5702 14.634C77.7206 14.0559 78.9936 13.7631 80.354 13.7631C82.3514 13.7631 83.3234 14.4764 83.3234 15.9433V17.0573C81.7211 17.1005 80.2691 17.2012 79.0023 17.3578C77.6352 17.5266 76.3865 18.0101 75.2905 18.7952C74.1591 19.6051 73.5859 20.83 73.5859 22.4351C73.5859 24.0352 74.0819 25.2423 75.0595 26.0232ZM93.4044 27.1813C92.3712 27.1813 91.4358 26.8661 90.6218 26.2442C89.7867 25.6082 89.3632 24.4921 89.3632 22.9276V8.30881C89.3632 7.90205 89.6117 7.41699 90.7936 7.41699H90.9109C92.0928 7.41699 92.3419 7.90205 92.3419 8.30881V22.6953C92.3419 24.3899 93.0982 24.5862 93.6678 24.5862C93.9822 24.5862 94.2513 24.5643 94.4658 24.5191C94.8162 24.4474 94.8847 24.4413 94.9289 24.4413C95.2284 24.4413 95.4584 24.6813 95.6132 25.1531C95.7408 25.5395 95.8021 25.8354 95.8021 26.0576C95.8021 27.1813 93.9976 27.1813 93.4044 27.1813ZM98.8176 26.2442C99.6316 26.8661 100.567 27.1813 101.6 27.1813C102.193 27.1813 103.998 27.1813 103.998 26.0576C103.998 25.8354 103.937 25.5395 103.809 25.1531C103.654 24.6813 103.424 24.4413 103.125 24.4413C103.08 24.4413 103.012 24.4474 102.661 24.5191C102.447 24.5643 102.178 24.5862 101.864 24.5862C101.294 24.5862 100.538 24.3899 100.538 22.6953V8.30881C100.538 7.90205 100.289 7.41699 99.1063 7.41699H98.9895C97.8076 7.41699 97.5585 7.90205 97.5585 8.30881V22.9276C97.5585 24.4921 97.9825 25.6082 98.8176 26.2442Z" style="fill: rgb(88, 108, 245);" transform="matrix(1, 0, 0, 1, 0, -4.440892098500626e-16)"/>
</svg>

<svg xmlns="http://www.w3.org/2000/svg" fill="none" viewBox="0 0 104 38"><path fill-rule="evenodd" d="M57.51 26.691c1.04.366 2.336.549 3.887.549 1.55 0 2.84-.47 3.872-1.409 1.03-.939 1.545-2.19 1.545-3.752 0-.968-.206-1.783-.616-2.447-.41-.662-.91-1.146-1.5-1.453-.59-.305-1.18-.563-1.77-.77a8.14 8.14 0 0 1-1.501-.683c-.411-.247-.616-.567-.616-.964 0-.712.54-1.067 1.621-1.067.54 0 1.096.104 1.666.31.57.209.865.313.886.313.26 0 .54-.301.84-.905.3-.604.45-1.033.45-1.29 0-.771-.72-1.315-2.162-1.632a10.61 10.61 0 0 0-2.28-.236c-1.702 0-3.047.43-4.037 1.29-.99.86-1.486 2.031-1.486 3.514 0 .989.206 1.799.616 2.432.41.633.91 1.088 1.5 1.364.59.277 1.181.514 1.77.712.591.198 1.091.44 1.501.727.41.287.616.667.616 1.142 0 .889-.61 1.334-1.83 1.334-.561 0-1.181-.138-1.862-.415-.68-.278-1.04-.416-1.08-.416-.3 0-.64.287-1.02.86-.381.574-.571 1.019-.571 1.335 0 .673.52 1.191 1.56 1.557Zm-15.94-.623c.72.782 1.831 1.172 3.332 1.172.92 0 1.775-.218 2.565-.652.791-.436 1.426-.969 1.906-1.602.02.06.055.227.106.505.05.277.094.469.135.577.04.109.1.257.18.445.08.188.185.321.315.4.13.08.395.12.795.12s1.005-.08 1.815-.238c.811-.159 1.216-.395 1.216-.712l-.18-1.215c-.12-.832-.18-1.859-.18-3.085V12.38c0-.632-.6-.949-1.801-.949h-.84c-1.2 0-1.8.317-1.8.95v9.52c-.601 1.146-1.402 1.72-2.402 1.72-1.2 0-1.8-.613-1.8-1.84v-9.4c0-.633-.6-.95-1.801-.95h-.84c-1.201 0-1.802.317-1.802.95v10.054c0 1.64.361 2.851 1.08 3.632ZM71.59 19c0 10.04-8.237 18.178-18.395 18.178-10.16 0-18.394-8.139-18.394-18.178C34.8 8.962 43.036.823 53.195.823 63.353.823 71.59 8.962 71.59 19ZM3.378 27.315h-.12c-1.205 0-1.457-.492-1.457-.906V13.88H.858c-.32 0-.858-.149-.858-1.144v-.357c0-.995.537-1.143.858-1.143H1.8V8.673c0-1.786.506-2.997 1.503-3.598a4.996 4.996 0 0 1 2.625-.748c.606 0 2.45 0 2.45 1.144 0 .226-.064.529-.194.923-.059.18-.238.724-.695.724-.044 0-.116-.005-.472-.078-.224-.046-.544-.07-.953-.07-.36 0-.65.115-.881.353-.16.162-.348.57-.348 1.588v2.326H7.19c.32 0 .858.148.858 1.143v.357c0 .995-.537 1.144-.858 1.144H4.836V26.41c0 .414-.253.906-1.458.906Zm9.515-12.309c.635-.876 1.617-1.303 3.002-1.303 1.386 0 2.378.432 3.034 1.32.664.9 1 2.327 1 4.24 0 1.912-.336 3.333-1 4.223-.655.879-1.647 1.306-3.034 1.306-1.385 0-2.367-.426-3.002-1.303-.645-.89-.972-2.317-.972-4.242 0-1.924.327-3.351.972-4.24Zm-2.278 10.326c1.236 1.395 3.038 2.103 5.355 2.103 2.319 0 4.102-.704 5.299-2.091 1.186-1.376 1.787-3.408 1.787-6.037 0-2.63-.611-4.68-1.816-6.096-1.217-1.427-2.995-2.151-5.285-2.151-2.289 0-4.08.728-5.327 2.165-1.236 1.425-1.862 3.471-1.862 6.082 0 2.612.622 4.64 1.849 6.025Zm16.655 1.984h-.12c-1.205 0-1.457-.493-1.457-.906V16c0-1.184-.05-2.035-.146-2.532-.215-1.09-.215-1.162-.215-1.205 0-.25.13-.584.756-.763.854-.244 1.278-.2 1.507-.087.116.057.22.146.312.263.083.105.149.213.198.32.045.099.09.23.134.394.038.141.071.255.1.34.018.056.038.126.057.21 1.017-1.249 2.141-1.88 3.346-1.88.613 0 1.099.126 1.443.375.368.267.554.616.554 1.035 0 .363-.064.743-.192 1.132-.059.179-.238.725-.665.725-.082 0-.226-.021-.67-.179A3.15 3.15 0 0 0 31.185 14c-.376 0-.776.14-1.191.416-.433.289-.755.572-.957.845l-.31.383V26.41c0 .413-.253.906-1.458.906Zm51.681-7.281c.648-.249 2.117-.379 4.372-.388v3.05c-.675.585-1.342 1.043-1.985 1.366-.655.328-1.45.495-2.362.495-1.526 0-2.236-.675-2.236-2.123 0-.91.347-1.528 1.065-1.89a9.854 9.854 0 0 1 1.146-.51Zm-3.891 5.988c.96.768 2.239 1.159 3.798 1.159 1.854 0 3.455-.64 4.768-1.9.025.137.05.242.077.32.027.082.06.197.096.343a1.842 1.842 0 0 0 .317.72.862.862 0 0 0 .317.288c.226.109.65.15 1.477-.085.615-.177.743-.507.743-.752 0-.04 0-.079-.21-1.176-.094-.505-.142-1.337-.142-2.476v-6.492c0-1.504-.546-2.697-1.622-3.546-1.06-.835-2.436-1.258-4.09-1.258-1.626 0-3.043.215-4.21.639-1.285.467-1.884.934-1.884 1.47 0 .248.13.567.405 1.004.302.477.58.7.879.7.074 0 .124 0 .791-.347 1.15-.578 2.424-.87 3.784-.87 1.997 0 2.97.712 2.97 2.18v1.113a45.73 45.73 0 0 0-4.322.3 7.978 7.978 0 0 0-3.712 1.438c-1.13.81-1.704 2.035-1.704 3.64 0 1.6.496 2.807 1.474 3.588Zm18.344 1.158a4.482 4.482 0 0 1-2.782-.937c-.835-.636-1.259-1.752-1.259-3.316V8.308c0-.406.249-.891 1.43-.891h.118c1.182 0 1.43.485 1.43.892v14.386c0 1.695.757 1.891 1.327 1.891.314 0 .583-.022.798-.067.35-.072.419-.078.463-.078.3 0 .53.24.684.712.128.387.19.682.19.905 0 1.123-1.805 1.123-2.399 1.123Zm5.414-.937c.814.622 1.749.937 2.782.937.593 0 2.398 0 2.398-1.123 0-.223-.061-.518-.189-.905-.155-.472-.385-.712-.684-.712-.045 0-.113.006-.464.078a3.969 3.969 0 0 1-.797.067c-.57 0-1.326-.196-1.326-1.89V8.308c0-.407-.249-.892-1.432-.892h-.116c-1.182 0-1.431.485-1.431.892v14.619c0 1.564.424 2.68 1.259 3.316Z" clip-rule="evenodd" style="fill:#586cf5"/></svg>
